X: 47
T:The High Part of the Road
R:Jig
S:Josie Nugent,Clare (fiddle)
D:Private tape
N:As played
Z:Bernie Stocks
M:6/8
K:G
dc || A {dBA}B2 B {dcB}c2 | ded cAG | E {GFE}F2 DED | DGG FGA |
A {dBA}B2 B {dcB}c2 | dcA d2e |1 {a}fed cAF | AGF G2A :|2 f2d cAF | AGF GBd ||
f {agf}g2 def | {agf}g2a bag | e {afe}f2 dfa | {b}afd cAG |
f {agf}g2 def | {agf}g2a bag | fed cAF | AGF GBd |
f {agf}g2 d {edc}d2 | g2a bag | e {afe}f2 daa | {b}afd cAG |
f {agf}g2 def | {agf}g2a bag | f2d cAF | AGF G3 ||
<end>
<start>
